X:1
T:Title
%%score { ( 1 3 ) | ( 2 4 ) }
L:1/8
Q:1/4=114
M:6/4
K:C
V:1 treble nm="Grand Piano"
V:3 treble 
V:2 bass 
V:4 bass 
V:1
 [EG]2 [FA]2 [EG]2 [CE]2 [EG]2 [Ge]2 | [^Fe]4 [Fd]2 z4 D2 | B2 d2 B2 F2 B2 A2 | [FA]6 .[EG]6 | %4
w: B.~D.~Ackley * * * * *||||
 [EG]2 [FA]2 [EG]2 [CE]2 [EG]2 [Ge]2 | [^Fe]4 [Fd]2 [FA]6 | [^FA]2 [FB]2 [Fc]2 [Fe]2 [Fd]2 [FA]2 | %7
w: |||
 d12 | [Ge]6 [EG]6 | ^F2 [Fe]2 [Fd]2 z4 D2 | B2 e2 d2 F2 B2 A2 | A4- [_EA]2 .[=EG]6 | [Ge]6 [EG]6 | %13
w: ||||||
 ^F2 [Fe]2 [Fd]2 z4 D2 | B2 G2 f2 e4 d2 | c2- [Gc-]2 [Fc-]2 [Ec]6 |] %16
w: |||
V:2
 [C,C]2 [C,C]2 [C,C]2 [C,G,]2 [C,C]2 [C,C]2 | [D,C]4 [D,C]2 .[D,C]6 | %2
 [G,DF]2 [G,B,F]2 [G,DF]2 [G,B,D]2 [G,DF]2 [G,B,F]2 | [C,C]12 | %4
 [C,C]2 [C,C]2 [C,C]2 [C,G,]2 [C,C]2 [C,C]2 | [D,C]4 [D,C]2 [D,C]6 | %6
 [D,D]2 [D,D]2 [D,D]2 [D,C]2 [D,C]2 [D,C]2 | [G,,B,F]12 | [C,C]2 C,2 C,2 C,4 C,2 | %9
 [D,CD]2 [D,C]2 [D,C]2 .[D,C]6 | [G,DF]2 [G,B,F]2 [G,B,F]2 [G,B,D]2 [G,DF]2 [G,B,F]2 | %11
 [C,C]4 [C,C]2 .[C,C]6 | [C,C]2 C,2 C,2 C,4 C,2 | [D,CD]2 [D,C]2 [D,C]2 .[D,C]6 | %14
 [G,DF]2 [G,B,F]2 [G,B,A]2 [G,CG]4 [G,B,F]2 | [C,C]2 [C,B,]2 [C,A,]2 .[C,G,]6 |] %16
V:3
 x12 | z6 [^FA]6 | x12 | x12 | x12 | x12 | x12 | z A, G,4- G,4 z2 | z2 C2 C2 C4 C2 | z6 [^FA]6 | %10
 x12 | .F6 z6 | z2 C2 C2 C4 C2 | z6 [^FA]6 | x12 | .E6 z6 |] %16
V:4
 x12 | x12 | x12 | x12 | x12 | x12 | x12 | .G,3 F,E,D, z6 | x12 | x12 | x12 | x12 | x12 | x12 | %14
 x12 | x12 |] %16

